X: 6
T:Trunkles, Wheatley
M:4/4
L:1/8
A:Wheatley
P:A(AB)3A
K:AMix
P:A
c2ee a2e2|c2ee a2e2|dc/d/c B2A2|cefd B2A2|
c2ee a2e2|c2ee a2e2|dc/d/c b2f2|ecec B2A2||
P:B
EcEc Ecc2|B2c2 Ecc2|B2A2   Ecc2|ecfd B2A2|
E2c2 Ecc2|B2B2 Ecc2|B2A2   Ecc2|ecec B2A2||
